X:1
T:Maclotte
B:Les p'tites danses d'Erezee
O:Wallonie
M:2/4
L:1/16
Q:C4=84
K:C
cBcd e2c2 | B2d2 f2d2 | cBcd e2c2 | B2A2 G2 z2 |
cBcd e2c2 | B2d2 fdef | g2 G2A2B2 | d4 c2 z2 :|
|: gfef g2e2 | a2g2f2 z2 | fede f2d2 | g2f2e2 z2 |
cBcd e2c2 | B2d2 fdef | g2 G2A2B2 | d4 c2 z2 :|
